public/logo-exdev.svg

<svg width="241" height="65" xmlns="http://www.w3.org/2000/svg" fill="none">

 <g>
  <title>Layer 1</title>
  <path id="svg_1" fill="#0097A9" d="m62.6229,13.8836c0.756,-0.7534 1.3552,-1.6491 1.7631,-2.6353c0.4079,-0.9863 0.6164,-2.04349 0.6134,-3.1107c0.0112,-1.61186 -0.46,-3.19024 -1.353,-4.53229c-0.893,-1.34205 -2.1671,-2.38647 -3.6584,-2.99902c-1.4913,-0.61255 -3.1317,-0.76525 -4.7105,-0.43848c-1.5788,0.32677 -3.0238,1.11808 -4.1492,2.27224c-1.3798,1.38014 -3.018,2.47497 -4.8211,3.22194c-1.803,0.74697 -3.7357,1.13144 -5.6874,1.13144c-1.9517,0 -3.8844,-0.38447 -5.6874,-1.13144c-1.8031,-0.74697 -3.4413,-1.8418 -4.8211,-3.22194c-1.1364,-1.13507 -2.584,-1.90781 -4.1596,-2.22054c-1.5757,-0.31273 -3.2087,-0.15141 -4.6926,0.46357c-1.484,0.61498 -2.7523,1.65601 -3.6446,2.99149c-0.8923,1.33549 -1.3685,2.90548 -1.3685,4.51152c0,1.60604 0.4762,3.17601 1.3685,4.51151c0.8923,1.3355 2.1606,2.3765 3.6446,2.9915c1.4839,0.615 3.1169,0.7763 4.6926,0.4636c1.5756,-0.3128 3.0232,-1.0855 4.1596,-2.2206c1.3792,-1.3811 3.0173,-2.4768 4.8204,-3.2243c1.8032,-0.74761 3.7361,-1.1324 5.6881,-1.1324c1.952,0 3.8849,0.38479 5.6881,1.1324c1.8031,0.7475 3.4412,1.8432 4.8204,3.2243c2.7859,2.787 4.351,6.5659 4.351,10.5062c0,3.9402 -1.5651,7.7191 -4.351,10.5061c-1.3792,1.3811 -3.0173,2.4768 -4.8204,3.2244c-1.8032,0.7475 -3.7361,1.1323 -5.6881,1.1323c-1.952,0 -3.8849,-0.3848 -5.6881,-1.1323c-1.8031,-0.7476 -3.4412,-1.8433 -4.8204,-3.2244c-1.1364,-1.139 -2.5854,-1.9152 -4.1634,-2.2305c-1.5779,-0.3153 -3.214,-0.1554 -4.701,0.4594c-1.4871,0.6148 -2.7583,1.6568 -3.6527,2.9942c-0.8944,1.3374 -1.3718,2.9101 -1.3718,4.5189c0,1.6088 0.4774,3.1815 1.3718,4.5189c0.8944,1.3374 2.1656,2.3794 3.6527,2.9942c1.487,0.6148 3.1231,0.7747 4.701,0.4594c1.578,-0.3153 3.027,-1.0915 4.1634,-2.2305c2.7876,-2.7854 6.5674,-4.35 10.5085,-4.35c3.9411,0 7.7209,1.5646 10.5085,4.35c1.1278,1.1568 2.5765,1.949 4.1592,2.2746c1.5826,0.3256 3.2265,0.1695 4.7195,-0.4481c1.4931,-0.6176 2.7667,-1.6684 3.6566,-3.0168c0.8899,-1.3483 1.3552,-2.9324 1.3358,-4.5477c0.003,-1.0672 -0.2055,-2.1244 -0.6134,-3.1106c-0.4079,-0.9863 -1.0071,-1.882 -1.7631,-2.6354c-1.3887,-1.3798 -2.4908,-3.0205 -3.2428,-4.8277c-0.7521,-1.8072 -1.1393,-3.7453 -1.1393,-5.7027c0,-1.9574 0.3872,-3.8954 1.1393,-5.7027c0.752,-1.8072 1.8541,-3.4479 3.2428,-4.8277z"/>
  <path id="svg_2" fill="#65428A" d="m40.6279,48.7559c-1.0675,-0.003 -2.1249,0.2055 -3.1114,0.6133c-0.9864,0.4078 -1.8823,1.0069 -2.6359,1.7627c-1.3792,1.3811 -3.0173,2.4768 -4.8204,3.2244c-1.8032,0.7475 -3.736,1.1323 -5.6881,1.1323c-1.952,0 -3.8849,-0.3848 -5.6881,-1.1323c-1.8031,-0.7476 -3.4412,-1.8433 -4.8203,-3.2244c-1.3815,-1.3789 -2.4774,-3.0165 -3.2251,-4.8193c-0.74776,-1.8028 -1.13264,-3.7352 -1.13264,-5.6868c0,-1.9516 0.38488,-3.8841 1.13264,-5.6868c0.7477,-1.8028 1.8436,-3.4405 3.2251,-4.8193c1.3791,-1.3812 3.0172,-2.4768 4.8203,-3.2244c1.8032,-0.7476 3.7361,-1.1324 5.6881,-1.1324c1.9521,0 3.8849,0.3848 5.6881,1.1324c1.8031,0.7476 3.4412,1.8432 4.8204,3.2244c1.1365,1.1389 2.5854,1.9152 4.1634,2.2304c1.5779,0.3153 3.214,0.1554 4.701,-0.4593c1.4871,-0.6148 2.7583,-1.6569 3.6527,-2.9943c0.8944,-1.3374 1.3718,-2.91 1.3718,-4.5189c0,-1.6088 -0.4774,-3.1814 -1.3718,-4.5188c-0.8944,-1.3374 -2.1656,-2.3795 -3.6527,-2.9943c-1.487,-0.6147 -3.1231,-0.7746 -4.701,-0.4593c-1.578,0.3152 -3.0269,1.0915 -4.1634,2.2304c-2.7876,2.7854 -6.5674,4.3501 -10.5085,4.3501c-3.9411,0 -7.7209,-1.5647 -10.5084,-4.3501c-1.1289,-1.1544 -2.5776,-1.9443 -4.15962,-2.268c-1.58199,-0.3237 -3.22469,-0.1662 -4.71636,0.452c-1.49167,0.6183 -2.76394,1.6691 -3.65282,3.0169c-0.88887,1.3478 -1.35362,2.9309 -1.33432,4.5452c0.00337,1.0706 0.21948,2.1299 0.63578,3.1163c0.4163,0.9864 1.02449,1.8803 1.78925,2.6297c2.78598,2.787 4.35099,6.5659 4.35099,10.5062c0,3.9402 -1.56501,7.7191 -4.35099,10.5061c-0.76379,0.7485 -1.37142,1.641 -1.78769,2.626c-0.41627,0.9849 -0.6329,2.0427 -0.63734,3.1119c0.0027,1.6056 0.48081,3.1743 1.37404,4.5086c0.89322,1.3342 2.16157,2.3741 3.64514,2.9887c1.48356,0.6145 3.11591,0.7762 4.69123,0.4645c1.57531,-0.3116 3.02311,-1.0826 4.16071,-2.2157c1.3792,-1.3811 3.0173,-2.4768 4.8204,-3.2244c1.8032,-0.7475 3.7361,-1.1323 5.6881,-1.1323c1.952,0 3.8849,0.3848 5.6881,1.1323c1.8031,0.7476 3.4412,1.8433 4.8204,3.2244c0.9448,0.9437 2.1078,1.6399 3.386,2.0271c1.2782,0.3871 2.6321,0.4533 3.942,0.1925c1.3098,-0.2607 2.5351,-0.8403 3.5675,-1.6875c1.0324,-0.8471 1.8399,-1.9356 2.3511,-3.1692c0.5112,-1.2336 0.7104,-2.5741 0.5798,-3.903c-0.1305,-1.3288 -0.5868,-2.605 -1.3283,-3.7156c-0.7416,-1.1105 -1.7455,-2.0211 -2.9231,-2.6512c-1.1775,-0.6301 -2.4922,-0.9602 -3.8277,-0.9612l-0.0081,0z"/>
  <path id="svg_3" fill="#333333" d="m94.8711,53.5859c-2.4609,0 -4.668,-0.3906 -6.6211,-1.1718c-1.9531,-0.8008 -3.6133,-1.9043 -4.9805,-3.3106c-1.3476,-1.4062 -2.3828,-3.0371 -3.1054,-4.8926c-0.7227,-1.875 -1.084,-3.8671 -1.084,-5.9765l0,-1.1719c0,-2.4023 0.3418,-4.5996 1.0254,-6.5918c0.6836,-1.9922 1.6601,-3.7207 2.9297,-5.1855c1.289,-1.4649 2.8515,-2.5879 4.6875,-3.3692c1.8359,-0.8008 3.9062,-1.2012 6.2109,-1.2012c2.2461,0 4.2383,0.3711 5.9766,1.1133c1.7378,0.7422 3.1938,1.7969 4.3648,3.1641c1.192,1.3672 2.09,3.0078 2.696,4.9219c0.605,1.8945 0.908,4.0039 0.908,6.3281l0,3.5156l-25.1954,0l0,-5.625l16.9043,0l0,-0.6445c0,-1.1719 -0.2149,-2.2168 -0.6445,-3.1348c-0.4102,-0.9375 -1.0352,-1.6797 -1.875,-2.2265c-0.8399,-0.5469 -1.9141,-0.8204 -3.2227,-0.8204c-1.1133,0 -2.0703,0.2442 -2.8711,0.7325c-0.8008,0.4882 -1.4551,1.1718 -1.9629,2.0507c-0.4883,0.879 -0.8594,1.9141 -1.1133,3.1055c-0.2343,1.1719 -0.3515,2.4609 -0.3515,3.8672l0,1.1719c0,1.2695 0.1758,2.4414 0.5273,3.5156c0.3711,1.0742 0.8887,2.002 1.5528,2.7832c0.6835,0.7813 1.5039,1.3867 2.4609,1.8164c0.9766,0.4297 2.0801,0.6445 3.3105,0.6445c1.5235,0 2.9395,-0.2929 4.2481,-0.8789c1.3285,-0.6054 2.4705,-1.5136 3.4275,-2.7246l4.102,4.4532c-0.664,0.957 -1.572,1.875 -2.725,2.7539c-1.133,0.8789 -2.5,1.6015 -4.101,2.1679c-1.602,0.5469 -3.4281,0.8203 -5.4789,0.8203zm24.6089,-32.2851l5.245,9.6387l5.39,-9.6387l8.994,0l-8.964,15.498l9.375,16.2012l-9.024,0l-5.713,-10.1953l-5.713,10.1953l-9.023,0l9.375,-16.2012l-8.965,-15.498l9.023,0zm41.866,24.7851l0,-38.0859l8.496,0l0,45l-7.647,0l-0.849,-6.9141zm-20.039,-8.5547l0,-0.6152c0,-2.4219 0.273,-4.6191 0.82,-6.5918c0.547,-1.9922 1.348,-3.7012 2.402,-5.1269c1.055,-1.4258 2.354,-2.5293 3.897,-3.3106c1.543,-0.7812 3.301,-1.1719 5.273,-1.1719c1.856,0 3.477,0.3907 4.863,1.1719c1.407,0.7813 2.598,1.8945 3.575,3.3399c0.996,1.4257 1.797,3.1152 2.402,5.0683c0.606,1.9336 1.045,4.0528 1.318,6.3574l0,1.3477c-0.273,2.207 -0.712,4.2578 -1.318,6.1523c-0.605,1.8946 -1.406,3.5547 -2.402,4.9805c-0.977,1.4063 -2.168,2.5 -3.575,3.2813c-1.406,0.7812 -3.046,1.1718 -4.921,1.1718c-1.973,0 -3.731,-0.4004 -5.274,-1.2011c-1.523,-0.8008 -2.812,-1.9239 -3.867,-3.3692c-1.035,-1.4453 -1.826,-3.1445 -2.373,-5.0976c-0.547,-1.9532 -0.82,-4.0821 -0.82,-6.3868zm8.437,-0.6152l0,0.6152c0,1.3086 0.098,2.5293 0.293,3.6622c0.215,1.1328 0.557,2.1386 1.025,3.0175c0.489,0.8594 1.114,1.5332 1.876,2.0215c0.781,0.4688 1.728,0.7031 2.841,0.7031c1.446,0 2.637,-0.3222 3.575,-0.9667c0.937,-0.6641 1.65,-1.5723 2.138,-2.7247c0.508,-1.1523 0.801,-2.4804 0.879,-3.9843l0,-3.8379c-0.059,-1.2305 -0.234,-2.334 -0.527,-3.3106c-0.274,-0.9961 -0.684,-1.8457 -1.231,-2.5488c-0.527,-0.7031 -1.191,-1.25 -1.992,-1.6406c-0.781,-0.3907 -1.709,-0.586 -2.783,-0.586c-1.094,0 -2.031,0.2539 -2.813,0.7618c-0.781,0.4882 -1.416,1.1621 -1.904,2.0214c-0.469,0.8594 -0.82,1.875 -1.055,3.0469c-0.214,1.1524 -0.322,2.4024 -0.322,3.75zm41.279,16.6699c-2.461,0 -4.668,-0.3906 -6.621,-1.1718c-1.953,-0.8008 -3.613,-1.9043 -4.98,-3.3106c-1.348,-1.4062 -2.383,-3.0371 -3.106,-4.8926c-0.722,-1.875 -1.084,-3.8671 -1.084,-5.9765l0,-1.1719c0,-2.4023 0.342,-4.5996 1.026,-6.5918c0.683,-1.9922 1.66,-3.7207 2.93,-5.1855c1.289,-1.4649 2.851,-2.5879 4.687,-3.3692c1.836,-0.8008 3.906,-1.2012 6.211,-1.2012c2.246,0 4.238,0.3711 5.976,1.1133c1.739,0.7422 3.194,1.7969 4.366,3.1641c1.191,1.3672 2.09,3.0078 2.695,4.9219c0.606,1.8945 0.908,4.0039 0.908,6.3281l0,3.5156l-25.195,0l0,-5.625l16.904,0l0,-0.6445c0,-1.1719 -0.215,-2.2168 -0.644,-3.1348c-0.41,-0.9375 -1.035,-1.6797 -1.875,-2.2265c-0.84,-0.5469 -1.914,-0.8204 -3.223,-0.8204c-1.113,0 -2.07,0.2442 -2.871,0.7325c-0.801,0.4882 -1.455,1.1718 -1.963,2.0507c-0.488,0.879 -0.859,1.9141 -1.113,3.1055c-0.235,1.1719 -0.352,2.4609 -0.352,3.8672l0,1.1719c0,1.2695 0.176,2.4414 0.528,3.5156c0.371,1.0742 0.888,2.002 1.552,2.7832c0.684,0.7813 1.504,1.3867 2.461,1.8164c0.977,0.4297 2.08,0.6445 3.311,0.6445c1.523,0 2.939,-0.2929 4.248,-0.8789c1.328,-0.6054 2.471,-1.5136 3.428,-2.7246l4.101,4.4532c-0.664,0.957 -1.572,1.875 -2.724,2.7539c-1.133,0.8789 -2.5,1.6015 -4.102,2.1679c-1.602,0.5469 -3.428,0.8203 -5.479,0.8203zm28.184,-6.7382l7.031,-25.5469l8.819,0l-10.694,31.6992l-5.332,0l0.176,-6.1523zm-4.834,-25.5469l7.061,25.5762l0.146,6.123l-5.361,0l-10.694,-31.6992l8.848,0z"/>
  <path id="svg_4" d="m241,5.5" opacity="NaN" stroke="#000" fill="#fff"/>
 </g>
</svg>

<svg width="254" height="65" viewBox="0 0 254 65" fill="none" xmlns="http://www.w3.org/2000/svg">
<path d="M62.6229 13.8836C63.3789 13.1302 63.9781 12.2345 64.386 11.2483C64.7939 10.262 65.0024 9.20481 64.9994 8.1376C65.0106 6.52574 64.5394 4.94736 63.6464 3.60531C62.7534 2.26326 61.4793 1.21884 59.988 0.606294C58.4967 -0.00625664 56.8563 -0.15896 55.2775 0.167809C53.6987 0.494577 52.2537 1.28589 51.1283 2.44005C49.7485 3.82019 48.1103 4.91502 46.3072 5.66199C44.5042 6.40896 42.5715 6.79343 40.6198 6.79343C38.6681 6.79343 36.7354 6.40896 34.9324 5.66199C33.1293 4.91502 31.4911 3.82019 30.1113 2.44005C28.9749 1.30498 27.5273 0.532238 25.9517 0.21951C24.376 -0.0932182 22.743 0.0681027 21.2591 0.683081C19.7751 1.29806 18.5068 2.33909 17.6145 3.67457C16.7222 5.01006 16.246 6.58005 16.246 8.18609C16.246 9.79213 16.7222 11.3621 17.6145 12.6976C18.5068 14.0331 19.7751 15.0741 21.2591 15.6891C22.743 16.3041 24.376 16.4654 25.9517 16.1527C27.5273 15.8399 28.9749 15.0672 30.1113 13.9321C31.4905 12.551 33.1286 11.4553 34.9317 10.7078C36.7349 9.96019 38.6678 9.5754 40.6198 9.5754C42.5718 9.5754 44.5047 9.96019 46.3079 10.7078C48.111 11.4553 49.7491 12.551 51.1283 13.9321C53.9142 16.7191 55.4793 20.498 55.4793 24.4383C55.4793 28.3785 53.9142 32.1574 51.1283 34.9444C49.7491 36.3255 48.111 37.4212 46.3079 38.1688C44.5047 38.9163 42.5718 39.3011 40.6198 39.3011C38.6678 39.3011 36.7349 38.9163 34.9317 38.1688C33.1286 37.4212 31.4905 36.3255 30.1113 34.9444C28.9749 33.8054 27.5259 33.0292 25.9479 32.7139C24.37 32.3986 22.7339 32.5585 21.2469 33.1733C19.7598 33.7881 18.4886 34.8301 17.5942 36.1675C16.6998 37.5049 16.2224 39.0776 16.2224 40.6864C16.2224 42.2952 16.6998 43.8679 17.5942 45.2053C18.4886 46.5427 19.7598 47.5847 21.2469 48.1995C22.7339 48.8143 24.37 48.9742 25.9479 48.6589C27.5259 48.3436 28.9749 47.5674 30.1113 46.4284C32.8989 43.643 36.6787 42.0784 40.6198 42.0784C44.5609 42.0784 48.3407 43.643 51.1283 46.4284C52.2561 47.5852 53.7048 48.3774 55.2875 48.703C56.8701 49.0286 58.514 48.8725 60.007 48.2549C61.5001 47.6373 62.7737 46.5865 63.6636 45.2381C64.5535 43.8898 65.0188 42.3057 64.9994 40.6904C65.0024 39.6232 64.7939 38.566 64.386 37.5798C63.9781 36.5935 63.3789 35.6978 62.6229 34.9444C61.2342 33.5646 60.1321 31.9239 59.3801 30.1167C58.628 28.3095 58.2408 26.3714 58.2408 24.414C58.2408 22.4566 58.628 20.5186 59.3801 18.7113C60.1321 16.9041 61.2342 15.2634 62.6229 13.8836Z" fill="#0097A9"/>
<path d="M40.6279 48.7559C39.5604 48.7529 38.503 48.9614 37.5165 49.3692C36.5301 49.777 35.6342 50.3761 34.8806 51.1319C33.5014 52.513 31.8633 53.6087 30.0602 54.3563C28.257 55.1038 26.3242 55.4886 24.3721 55.4886C22.4201 55.4886 20.4872 55.1038 18.684 54.3563C16.8809 53.6087 15.2428 52.513 13.8637 51.1319C12.4822 49.753 11.3863 48.1154 10.6386 46.3126C9.89084 44.5098 9.50596 42.5774 9.50596 40.6258C9.50596 38.6742 9.89084 36.7417 10.6386 34.939C11.3863 33.1362 12.4822 31.4985 13.8637 30.1197C15.2428 28.7385 16.8809 27.6429 18.684 26.8953C20.4872 26.1477 22.4201 25.7629 24.3721 25.7629C26.3242 25.7629 28.257 26.1477 30.0602 26.8953C31.8633 27.6429 33.5014 28.7385 34.8806 30.1197C36.0171 31.2586 37.466 32.0349 39.044 32.3501C40.6219 32.6654 42.258 32.5055 43.745 31.8908C45.2321 31.276 46.5033 30.2339 47.3977 28.8965C48.2921 27.5591 48.7695 25.9865 48.7695 24.3776C48.7695 22.7688 48.2921 21.1962 47.3977 19.8588C46.5033 18.5214 45.2321 17.4793 43.745 16.8645C42.258 16.2498 40.6219 16.0899 39.044 16.4052C37.466 16.7204 36.0171 17.4967 34.8806 18.6356C32.093 21.421 28.3132 22.9857 24.3721 22.9857C20.431 22.9857 16.6512 21.421 13.8637 18.6356C12.7348 17.4812 11.2861 16.6913 9.70408 16.3676C8.12209 16.0439 6.47939 16.2014 4.98772 16.8196C3.49605 17.4379 2.22378 18.4887 1.3349 19.8365C0.446026 21.1843 -0.018717 22.7674 0.000577295 24.3817C0.00394805 25.4523 0.22006 26.5116 0.63636 27.498C1.05266 28.4844 1.66085 29.3783 2.42561 30.1277C5.21159 32.9147 6.7766 36.6936 6.7766 40.6339C6.7766 44.5741 5.21159 48.353 2.42561 51.14C1.66182 51.8885 1.05419 52.781 0.637917 53.766C0.221647 54.7509 0.00501712 55.8087 0.000577295 56.8779C0.00328279 58.4835 0.481389 60.0522 1.37462 61.3865C2.26784 62.7207 3.53619 63.7606 5.01976 64.3752C6.50332 64.9897 8.13567 65.1514 9.71099 64.8397C11.2863 64.5281 12.7341 63.7571 13.8717 62.624C15.2509 61.2429 16.889 60.1472 18.6921 59.3996C20.4953 58.6521 22.4282 58.2673 24.3802 58.2673C26.3322 58.2673 28.2651 58.6521 30.0683 59.3996C31.8714 60.1472 33.5095 61.2429 34.8887 62.624C35.8335 63.5677 36.9965 64.2639 38.2747 64.6511C39.5529 65.0382 40.9068 65.1044 42.2167 64.8436C43.5265 64.5829 44.7518 64.0033 45.7842 63.1561C46.8166 62.309 47.6241 61.2205 48.1353 59.9869C48.6465 58.7533 48.8457 57.4128 48.7151 56.0839C48.5846 54.7551 48.1283 53.4789 47.3868 52.3683C46.6452 51.2578 45.6413 50.3472 44.4637 49.7171C43.2862 49.087 41.9715 48.7569 40.636 48.7559H40.6279Z" fill="#65428A"/>
<path d="M94.8711 53.5859C92.4102 53.5859 90.2031 53.1953 88.25 52.4141C86.2969 51.6133 84.6367 50.5098 83.2695 49.1035C81.9219 47.6973 80.8867 46.0664 80.1641 44.2109C79.4414 42.3359 79.0801 40.3438 79.0801 38.2344V37.0625C79.0801 34.6602 79.4219 32.4629 80.1055 30.4707C80.7891 28.4785 81.7656 26.75 83.0352 25.2852C84.3242 23.8203 85.8867 22.6973 87.7227 21.916C89.5586 21.1152 91.6289 20.7148 93.9336 20.7148C96.1797 20.7148 98.1719 21.0859 99.9102 21.8281C101.648 22.5703 103.104 23.625 104.275 24.9922C105.467 26.3594 106.365 28 106.971 29.9141C107.576 31.8086 107.879 33.918 107.879 36.2422V39.7578H82.6836V34.1328H99.5879V33.4883C99.5879 32.3164 99.373 31.2715 98.9434 30.3535C98.5332 29.416 97.9082 28.6738 97.0684 28.127C96.2285 27.5801 95.1543 27.3066 93.8457 27.3066C92.7324 27.3066 91.7754 27.5508 90.9746 28.0391C90.1738 28.5273 89.5195 29.2109 89.0117 30.0898C88.5234 30.9688 88.1523 32.0039 87.8984 33.1953C87.6641 34.3672 87.5469 35.6562 87.5469 37.0625V38.2344C87.5469 39.5039 87.7227 40.6758 88.0742 41.75C88.4453 42.8242 88.9629 43.752 89.627 44.5332C90.3105 45.3145 91.1309 45.9199 92.0879 46.3496C93.0645 46.7793 94.168 46.9941 95.3984 46.9941C96.9219 46.9941 98.3379 46.7012 99.6465 46.1152C100.975 45.5098 102.117 44.6016 103.074 43.3906L107.176 47.8438C106.512 48.8008 105.604 49.7188 104.451 50.5977C103.318 51.4766 101.951 52.1992 100.35 52.7656C98.748 53.3125 96.9219 53.5859 94.8711 53.5859ZM119.48 21.3008L124.725 30.9395L130.115 21.3008H139.109L130.145 36.7988L139.52 53H130.496L124.783 42.8047L119.07 53H110.047L119.422 36.7988L110.457 21.3008H119.48ZM161.346 46.0859V8H169.842V53H162.195L161.346 46.0859ZM141.307 37.5312V36.916C141.307 34.4941 141.58 32.2969 142.127 30.3242C142.674 28.332 143.475 26.623 144.529 25.1973C145.584 23.7715 146.883 22.668 148.426 21.8867C149.969 21.1055 151.727 20.7148 153.699 20.7148C155.555 20.7148 157.176 21.1055 158.562 21.8867C159.969 22.668 161.16 23.7812 162.137 25.2266C163.133 26.6523 163.934 28.3418 164.539 30.2949C165.145 32.2285 165.584 34.3477 165.857 36.6523V38C165.584 40.207 165.145 42.2578 164.539 44.1523C163.934 46.0469 163.133 47.707 162.137 49.1328C161.16 50.5391 159.969 51.6328 158.562 52.4141C157.156 53.1953 155.516 53.5859 153.641 53.5859C151.668 53.5859 149.91 53.1855 148.367 52.3848C146.844 51.584 145.555 50.4609 144.5 49.0156C143.465 47.5703 142.674 45.8711 142.127 43.918C141.58 41.9648 141.307 39.8359 141.307 37.5312ZM149.744 36.916V37.5312C149.744 38.8398 149.842 40.0605 150.037 41.1934C150.252 42.3262 150.594 43.332 151.062 44.2109C151.551 45.0703 152.176 45.7441 152.938 46.2324C153.719 46.7012 154.666 46.9355 155.779 46.9355C157.225 46.9355 158.416 46.6133 159.354 45.9688C160.291 45.3047 161.004 44.3965 161.492 43.2441C162 42.0918 162.293 40.7637 162.371 39.2598V35.4219C162.312 34.1914 162.137 33.0879 161.844 32.1113C161.57 31.1152 161.16 30.2656 160.613 29.5625C160.086 28.8594 159.422 28.3125 158.621 27.9219C157.84 27.5312 156.912 27.3359 155.838 27.3359C154.744 27.3359 153.807 27.5898 153.025 28.0977C152.244 28.5859 151.609 29.2598 151.121 30.1191C150.652 30.9785 150.301 31.9941 150.066 33.166C149.852 34.3184 149.744 35.5684 149.744 36.916ZM191.023 53.5859C188.562 53.5859 186.355 53.1953 184.402 52.4141C182.449 51.6133 180.789 50.5098 179.422 49.1035C178.074 47.6973 177.039 46.0664 176.316 44.2109C175.594 42.3359 175.232 40.3438 175.232 38.2344V37.0625C175.232 34.6602 175.574 32.4629 176.258 30.4707C176.941 28.4785 177.918 26.75 179.188 25.2852C180.477 23.8203 182.039 22.6973 183.875 21.916C185.711 21.1152 187.781 20.7148 190.086 20.7148C192.332 20.7148 194.324 21.0859 196.062 21.8281C197.801 22.5703 199.256 23.625 200.428 24.9922C201.619 26.3594 202.518 28 203.123 29.9141C203.729 31.8086 204.031 33.918 204.031 36.2422V39.7578H178.836V34.1328H195.74V33.4883C195.74 32.3164 195.525 31.2715 195.096 30.3535C194.686 29.416 194.061 28.6738 193.221 28.127C192.381 27.5801 191.307 27.3066 189.998 27.3066C188.885 27.3066 187.928 27.5508 187.127 28.0391C186.326 28.5273 185.672 29.2109 185.164 30.0898C184.676 30.9688 184.305 32.0039 184.051 33.1953C183.816 34.3672 183.699 35.6562 183.699 37.0625V38.2344C183.699 39.5039 183.875 40.6758 184.227 41.75C184.598 42.8242 185.115 43.752 185.779 44.5332C186.463 45.3145 187.283 45.9199 188.24 46.3496C189.217 46.7793 190.32 46.9941 191.551 46.9941C193.074 46.9941 194.49 46.7012 195.799 46.1152C197.127 45.5098 198.27 44.6016 199.227 43.3906L203.328 47.8438C202.664 48.8008 201.756 49.7188 200.604 50.5977C199.471 51.4766 198.104 52.1992 196.502 52.7656C194.9 53.3125 193.074 53.5859 191.023 53.5859ZM219.207 46.8477L226.238 21.3008H235.057L224.363 53H219.031L219.207 46.8477ZM214.373 21.3008L221.434 46.877L221.58 53H216.219L205.525 21.3008H214.373Z" fill="#333333"/>
</svg>
